packages/symbols/svgs/solid/eye-slash-solid.svg

<svg width="16" height="16" viewBox="0 0 16 16" fill="none" xmlns="http://www.w3.org/2000/svg">
<g clip-path="url(#clip0_230_451)">
<path fill-rule="evenodd" clip-rule="evenodd" d="M11.6 3L14.3 0.3C14.7 -0.1 15.3 -0.1 15.7 0.3C16.1 0.7 16.1 1.3 15.7 1.7L1.7 15.7C1.5 15.9 1.3 16 1 16C0.7 16 0.5 15.9 0.3 15.7C-0.1 15.3 -0.1 14.7 0.3 14.3L2.8 11.8C1.8 10.9 0.9 9.9 0.4 9.1C-0.1 8.5 -0.1 7.6 0.4 6.9C1.6 5.1 4.4 2 8 2C9.3 2 10.5 2.4 11.6 3ZM5 8C5 8.5 5.1 8.9 5.3 9.3L9.3 5.3C8.9 5.1 8.5 5 8 5C6.3 5 5 6.3 5 8ZM6.40002 13.8L14.6 5.60001C14.7754 5.81923 14.9508 6.01923 15.1093 6.20001C15.3123 6.43154 15.4877 6.63154 15.6 6.80001C16.1 7.50001 16.1 8.40001 15.6 9.10001C14.4 10.9 11.6 14 8.00002 14C7.50002 14 6.90002 13.9 6.40002 13.8Z" fill="black"/>
</g>
<defs>
<clipPath id="clip0_230_451">
<rect width="16" height="16" fill="white"/>
</clipPath>
</defs>
</svg>

<svg width="16" height="16" viewBox="0 0 16 16" xmlns="http://www.w3.org/2000/svg"><g clip-path="url(#a)"><path fill-rule="evenodd" clip-rule="evenodd" d="M11.6 3 14.3.3c.4-.4 1-.4 1.4 0 .4.4.4 1 0 1.4l-14 14c-.2.2-.4.3-.7.3-.3 0-.5-.1-.7-.3-.4-.4-.4-1 0-1.4l2.5-2.5C1.8 10.9.9 9.9.4 9.1c-.5-.6-.5-1.5 0-2.2C1.6 5.1 4.4 2 8 2c1.3 0 2.5.4 3.6 1ZM5 8c0 .5.1.9.3 1.3l4-4C8.9 5.1 8.5 5 8 5 6.3 5 5 6.3 5 8Zm1.4 5.8 8.2-8.2c.175.22.35.42.51.6.202.232.378.432.49.6.5.7.5 1.6 0 2.3-1.2 1.8-4 4.9-7.6 4.9-.5 0-1.1-.1-1.6-.2Z"/></g><defs><clipPath id="a"><path fill="#fff" d="M0 0h16v16H0z"/></clipPath></defs></svg>
